X:1
T:Rough and Ready
T:            Rough and Ready (A Whig Song) 
T: To the friends of Taylor & Fillmore 
T:The girls, always true, Pretty Sal, and sweet Sue, Weave their garlands so fragrant and gay; The hero to grace, Whose honors we trace, From the Sabine to strong Monterey. Then with heart and hand &c. 
T:Every mountain and plain, From Texas to Maine, River, mine, house and towering steeple; The grave and the gay, By night and by day- Hurrah for the man of the People. Then with heart and hand &c. 
T:Public Domain -   https://imslp.org/wiki/Rough_and_Ready_(Anonymous)
T:Public Domain -   https://imslp.org/wiki/Rough_and_Ready_(Anonymous)
T:Public Domain -   https://imslp.org/wiki/Rough_and_Ready_(Anonymous)
Z:Public Domain -   https://imslp.org/wiki/Rough_and_Ready_(Anonymous)
%%score 1 2 3 { ( 4 6 ) | 5 }
L:1/8
M:4/4
K:Bb
V:1 treble nm="Voce"
V:2 treble nm="Voce"
V:3 bass nm="Voce"
V:4 treble nm="Piano"
V:6 treble 
V:5 bass 
V:1
 z8 | z8 | z8 | z8 |] F | B3/2 B/ B2 B2 (cB) | A3/2 F/ F2 F2 z F | G2 c3/2 c/ A2 F3/2 F/ | %8
w: ||||1. Who|goes for Old Zack? Sa\- id|Tom to stout Jack, Why|I, says the truche\-art\- * ed|
w: ||||2. The|lads at the plough Are *|in for it now, And the|work\- ers are stiff, strong and|
 (B3 c) B2 (A B) | c2 c3/2 c/ c2 (d3/2 c/) | B2 B3/2 B/ B2 e3/2 d/ | c2 A2 F2 G3/2 A/ | %12
w: sai\- _ lor; Not a|Saw\- ney or Pat, But will|throw up his hat, And Hur\-|rah for Gen\- eral _|
w: ste a\- dy; Bos, *|mas\- ter and boy, All *|roar\- ing with joy, Give three|cheers for Old Rough and|
 (B3 c) B2 z2 |] A3/2 B/ | c2 c2 c2 z c | d3 d d2 z d | e2 e3/2 e/ d2 c3/2 c/ | (d3 e/d/) c2 z F | %18
w: Tay _ lor!|Then with|heart and hand Trough\-|hout the land, We'll|on to the work, firm and|stead\- _ _ y, The|
w: Rea _ dy,||||||
 B2 B B B2 (AB) | c2 c3/2 c/ c2 z c | d2 e c d2 c2 | (d3 e) d2 (ed) | c2 c2 c2 z c | d3 d d2 z d | %24
w: lo\- cos we'll rout, Then *|join in the shout Hur\-|rah for old Rough and|Rad _ y, With *|heart and hand Trough\-|hout the land, We'll|
w: ||||||
 e2 e3/2 e/ d2 c3/2 c/ | (d3 e/d/) c2 z F | B2 B B B2 (AB) | c2 c3/2 c/ c2 z c | d2 e c d2 c2 | %29
w: on to the work, firm and|stead _ _ y The|lo\- cos we'll rout Then *|join in the shout Hur\-|rah for old Rough and|
w: |||||
 B4-{dc} B2 z2!D.C.! |] %30
w: Rad y,|
w: |
V:2
 z8 | z8 | z8 | z8 |] z | z8 | z8 | z8 | z8 | z8 | z8 | z8 | z8 |] F3/2 G/ | A2 A2 A2 z A | %15
w: |||||||||||||Then with|heart and hand Trough\-|
 F3 F F2 z F | G2 G3/2 G/ B2 A3/2 A/ | (B3 c/B/) A2 z c | d2 d d d2 (cB) | A2 A3/2 A/ A2 z A | %20
w: hout the land, We'll|on to the work, firm and|stead\- _ _ y, The|lo\- cos we'll rout, Then *|join in the shout Hur\-|
 B2 B A B2 A2 | (B3 c) B2 (cB) | A2 A2 A2 z A | F3 F F2 z F | G2 G3/2 G/ B2 A3/2 A/ | %25
w: rah for old Rough and|Rad _ y, With *|heart and hand Trough\-|hout the land, We'll|on to the work, firm and|
 (B3 c/B/) A2 z c | d2 d d d2 (cB) | A2 A3/2 A/ A2 z A | B2 B A B2 c2 | d4- d2 z2 |] %30
w: stead _ _ y The|lo\- cos we'll rout Then *|join in the shout Hur\-|rah for old Rough and|Rad y,|
V:3
 z8 | z8 | z8 | z8 |] z | z8 | z8 | z8 | z8 | z8 | z8 | z8 | z8 |] F,3/2 F,/ | F,2 F,2 F,2 (G,A,) | %15
 B,3 B, B,2 z B, | E,2 E,3/2 E,/ F,2 F,3/2 F,/ | F,4- (F,E,) (D,C,) | B,,2 B,, B,, B,,2 (B,,D,) | %19
 F,2 F,3/2 F,/ F,2 (G,A,) | B,2 E, E, F,2 F,2 | B,,4 B,,2 B,,2 | F,2 F,2 F,2 (G,A,) | %23
 B,3 B, B,2 z F, | E,2 E,3/2 E,/ F,2 F,3/2 F,/ | F,4- (F,E,) (D,C,) | B,,2 B,, B,, B,,2 (B,,D,) | %27
 F,2 F,3/2 F,/ F,2 (G,A,) | B,2 E, E, F,2 F,2 | B,,4- B,,2 z2 |] %30
V:4
!f! [DFB]2 [DFB]>[DFB] [DFB]2 ([Ac][GB]) | [FA]2 [Af]>[Af] [Af]2 z f | g2 (c'>b) a2 f2 | %3
 [db]3 [Bdfb] [Bdfb]2 z2 |]!mp! z | [DFB]2 z2 [DFB]2 z2 | [CFA]2 z2 [CFA]2 z2 | %7
 [EGc]2 z2 [CEFA]2 z2 | [DFB]4- [DFB]2 z2 | [FAc]2 [FAc]2 [FAc]2 z2 | [DFB]2 [DFB]2 [DFB]2 z2 | %11
 [EGc]2 z2 [CEFA]2 z2 | [DFB]4 [DFB]2 z2 |] z2 |!mf! [FAc]2 [FAc]2 [FAc]2 z2 | %15
 [FBd]2 [FBd]2 [FBd]2 z2 | [GBe]4 [FBd]2 [FAc]2 | [FBd]4 [FAc]2 z2 | [DFB]2 [DFB][DFB] [DFB]2 z2 | %19
 [FAc]2 [FAc]2 [FAc]2 z2 | [FBd]2 [Gce]2 [FBd]2 [FAc]2 | [FBd]4- [FBd]2!f! ([ce][Bd]) | %22
 [Ac]F[Ac]F [Ac]F[Ac]F | [Bd]F[Bd]F [Bd]F[Bd]F | z [GBe][GBe][GBe] z [FAe][FAe][FAe] | %25
 [FBd]4 [FAc]2 z2 | z [DFB] z [DFB] z [DFB] z [DFB] | z [FAc] z [FAc] z [FAc] z [FAc] | %28
 z [FBd] z [GBe] z [FBd] z [EAc] | [DFB]4- [DFB]2 z2 |] %30
V:5
 [B,,B,]2 [B,,B,]2 [B,,B,]2 z2 | [F,,F,]2 [F,,F,]2 [F,,F,]2 z2 | E,4 F,4 | B,3 B,, [B,,B,]2 z2 |] %4
 z | [B,,B,]2 z2 [B,,B,]2 z2 | [F,,F,]2 z2 [F,,F,]2 z2 | [E,,E,]2 z2 [F,,F,]2 z2 | %8
 [B,,B,]4- [B,,B,]2 z2 | [F,,F,]2 [F,,F,]2 [F,,F,]2 z2 | [B,,B,]2 [B,,B,]2 [B,,B,]2 z2 | %11
 [E,,E,]2 z2 [F,,F,]2 z2 | [B,,B,]4 [B,,B,]2 z2 |] z2 | [F,,F,]2 [F,,F,]2 [F,,F,]2 z2 | %15
 [B,,B,]2 [B,,B,]2 [B,,B,]2 z2 | E,4 F,2 F,,2 | [F,,F,-]4 F,E,D,C, | %18
 [B,,B,]2 [B,,B,]2 [B,,B,]2 z2 | [F,,F,]2 [F,,F,]2 [F,,F,]2 z2 | %20
 [B,,B,]2 [E,,E,]2 [F,,F,]2 [F,,F,]2 | [B,,B,]4 B,,2 z2 | [F,,F,]2 z2 [F,,F,]2 z2 | %23
 [B,,B,]2 z2 [B,,B,]2 z2 | [E,,E,]2 z2 [F,,F,]2 z2 | F,4- (F,E,D,C,) | %26
 [B,,B,]2 [B,,B,]2 [B,,B,]2 [B,,B,]2 | [F,,F,]2 [F,,F,]2 [F,,F,]2 z2 | %28
 [B,,B,]2 [E,,E,]2 [F,,F,]2 [F,,F,]2 | [B,,,B,,]4- [B,,,B,,]2 z2 |] %30
V:6
 x8 | x8 | e4 e4 | x8 |] x | x8 | x8 | x8 | x8 | x8 | x8 | x8 | x8 |] x2 | x8 | x8 | x8 | x8 | x8 | %19
 x8 | x8 | x8 | x8 | x8 | x8 | x8 | x8 | x8 | x8 | x8 |] %30

